images/category_icons/funding-icon.svg

<svg xmlns="http://www.w3.org/2000/svg" fill="none" viewBox="0 0 496 496"><path fill="#000" d="M80 254.84V272h16v-17.16c9.24-2.928 16-11.48 16-21.672 0-8.696-4.832-16.528-12.624-20.424l-15.6-7.792a6.81 6.81 0 01-3.776-6.12A6.839 6.839 0 0186.832 192h2.336A6.839 6.839 0 0196 198.832V200h16v-1.168c0-10.192-6.76-18.744-16-21.672V160H80v17.16c-9.24 2.928-16 11.48-16 21.672 0 8.696 4.832 16.528 12.624 20.424l15.6 7.792a6.81 6.81 0 013.776 6.12A6.839 6.839 0 0189.168 240h-2.336A6.839 6.839 0 0180 233.168V224H64v9.168c0 10.192 6.76 18.744 16 21.672z"/><path fill="#000" d="M88 304c48.52 0 88-39.48 88-88 0-2.192-.168-4.344-.328-6.504l27.136-4.528C207.8 216.16 218.984 224 232 224c17.648 0 32-14.352 32-32 0-2.912-.52-5.68-1.248-8.36l58.36-33.352C326.928 156.264 335.024 160 344 160c17.648 0 32-14.352 32-32 0-5.92-1.72-11.392-4.536-16.152L456 27.312V72h16V0h-72v16h44.688l-84.536 84.536C355.392 97.72 349.92 96 344 96c-17.648 0-32 14.352-32 32 0 2.912.52 5.68 1.248 8.36l-58.36 33.352C249.072 163.736 240.976 160 232 160c-16.68 0-30.256 12.872-31.712 29.176l-27.256 4.544C163.128 155.968 128.816 128 88 128c-48.52 0-88 39.48-88 88s39.48 88 88 88zm256-192c8.824 0 16 7.176 16 16s-7.176 16-16 16-16-7.176-16-16 7.176-16 16-16zm-112 64c8.824 0 16 7.176 16 16s-7.176 16-16 16-16-7.176-16-16 7.176-16 16-16zM88 144c39.696 0 72 32.304 72 72s-32.304 72-72 72-72-32.304-72-72 32.304-72 72-72zM16 496h80V320H16v176zm16-160h48v144H32V336zM112 496h80V336h-80v160zm16-144h48v128h-48V352z"/><path fill="#000" d="M208 496h80V240h-80v256zm16-240h48v224h-48V256zM424 369.16V352h-16v17.16c-9.24 2.928-16 11.48-16 21.672 0 8.696 4.832 16.52 12.624 20.424l15.6 7.8a6.79 6.79 0 013.776 6.112c0 3.76-3.064 6.832-6.832 6.832h-2.336c-3.768 0-6.832-3.072-6.832-6.832V416h-16v9.168c0 10.2 6.76 18.752 16 21.672V464h16v-17.16c9.24-2.928 16-11.48 16-21.672 0-8.696-4.832-16.52-12.624-20.424l-15.6-7.8a6.79 6.79 0 01-3.776-6.112c0-3.76 3.064-6.832 6.832-6.832h2.336c3.768 0 6.832 3.072 6.832 6.832V392h16v-1.168c0-10.192-6.76-18.744-16-21.672z"/><path fill="#000" d="M483.84 370.248l-27.168-43.472 14.216-49.752c.736-2.6 1.112-5.28 1.112-7.968C472 253.032 458.968 240 442.952 240h-21.896c-11.304 0-21.008 6.552-25.808 16H384v-80h-80v320h112c44.112 0 80-35.888 80-80v-3.352a79.929 79.929 0 00-12.16-42.4zM408 269.056c0-7.2 5.856-13.056 13.048-13.056h21.896c7.2 0 13.056 5.856 13.056 13.056a12.97 12.97 0 01-.504 3.584L441.968 320h-54.656l-23.032-23.032a14.738 14.738 0 01-4.28-10.344c0-8.064 6.56-14.624 14.632-14.624H392v16h16v-18.944zM320 480V192h48v64.768c-13.704 3.04-24 15.256-24 29.856 0 8.184 3.184 15.872 8.976 21.656l20.872 20.872-25.68 41.096a79.865 79.865 0 00-12.168 42.4V416c0 26.184 12.704 49.4 32.208 64H320zm160-64c0 35.288-28.712 64-64 64s-64-28.712-64-64v-3.352a63.855 63.855 0 019.728-33.912L388.432 336h55.136l26.704 42.736A63.855 63.855 0 01480 412.648V416z"/></svg>

<svg width="496" height="496" viewBox="0 0 496 496" fill="none" xmlns="http://www.w3.org/2000/svg">
<path d="M80 254.84V272H96V254.84C105.24 251.912 112 243.36 112 233.168C112 224.472 107.168 216.64 99.376 212.744L83.776 204.952C81.448 203.784 80 201.44 80 198.832C80 195.064 83.064 192 86.832 192H89.168C92.936 192 96 195.064 96 198.832V200H112V198.832C112 188.64 105.24 180.088 96 177.16V160H80V177.16C70.76 180.088 64 188.64 64 198.832C64 207.528 68.832 215.36 76.624 219.256L92.224 227.048C94.552 228.216 96 230.56 96 233.168C96 236.936 92.936 240 89.168 240H86.832C83.064 240 80 236.936 80 233.168V224H64V233.168C64 243.36 70.76 251.912 80 254.84Z" fill="black"/>
<path d="M88 304C136.52 304 176 264.52 176 216C176 213.808 175.832 211.656 175.672 209.496L202.808 204.968C207.8 216.16 218.984 224 232 224C249.648 224 264 209.648 264 192C264 189.088 263.48 186.32 262.752 183.64L321.112 150.288C326.928 156.264 335.024 160 344 160C361.648 160 376 145.648 376 128C376 122.08 374.28 116.608 371.464 111.848L456 27.312V72H472V0H400V16H444.688L360.152 100.536C355.392 97.72 349.92 96 344 96C326.352 96 312 110.352 312 128C312 130.912 312.52 133.68 313.248 136.36L254.888 169.712C249.072 163.736 240.976 160 232 160C215.32 160 201.744 172.872 200.288 189.176L173.032 193.72C163.128 155.968 128.816 128 88 128C39.48 128 0 167.48 0 216C0 264.52 39.48 304 88 304ZM344 112C352.824 112 360 119.176 360 128C360 136.824 352.824 144 344 144C335.176 144 328 136.824 328 128C328 119.176 335.176 112 344 112ZM232 176C240.824 176 248 183.176 248 192C248 200.824 240.824 208 232 208C223.176 208 216 200.824 216 192C216 183.176 223.176 176 232 176ZM88 144C127.696 144 160 176.304 160 216C160 255.696 127.696 288 88 288C48.304 288 16 255.696 16 216C16 176.304 48.304 144 88 144Z" fill="black"/>
<path d="M16 496H96V320H16V496ZM32 336H80V480H32V336Z" fill="black"/>
<path d="M112 496H192V336H112V496ZM128 352H176V480H128V352Z" fill="black"/>
<path d="M208 496H288V240H208V496ZM224 256H272V480H224V256Z" fill="black"/>
<path d="M424 369.16V352H408V369.16C398.76 372.088 392 380.64 392 390.832C392 399.528 396.832 407.352 404.624 411.256L420.224 419.056C422.552 420.216 424 422.56 424 425.168C424 428.928 420.936 432 417.168 432H414.832C411.064 432 408 428.928 408 425.168V416H392V425.168C392 435.368 398.76 443.92 408 446.84V464H424V446.84C433.24 443.912 440 435.36 440 425.168C440 416.472 435.168 408.648 427.376 404.744L411.776 396.944C409.448 395.784 408 393.44 408 390.832C408 387.072 411.064 384 414.832 384H417.168C420.936 384 424 387.072 424 390.832V392H440V390.832C440 380.64 433.24 372.088 424 369.16Z" fill="black"/>
<path d="M483.84 370.248L456.672 326.776L470.888 277.024C471.624 274.424 472 271.744 472 269.056C472 253.032 458.968 240 442.952 240H421.056C409.752 240 400.048 246.552 395.248 256H384V176H304V496H416C460.112 496 496 460.112 496 416V412.648C496 397.632 491.792 382.976 483.84 370.248ZM408 269.056C408 261.856 413.856 256 421.048 256H442.944C450.144 256 456 261.856 456 269.056C456 270.264 455.832 271.472 455.496 272.64L441.968 320H387.312L364.28 296.968C361.56 294.24 360 290.48 360 286.624C360 278.56 366.56 272 374.632 272H392V288H408V269.056ZM320 480V192H368V256.768C354.296 259.808 344 272.024 344 286.624C344 294.808 347.184 302.496 352.976 308.28L373.848 329.152L348.168 370.248C340.208 382.976 336 397.632 336 412.648V416C336 442.184 348.704 465.4 368.208 480H320ZM480 416C480 451.288 451.288 480 416 480C380.712 480 352 451.288 352 416V412.648C352 400.64 355.36 388.912 361.728 378.736L388.432 336H443.568L470.272 378.736C476.64 388.912 480 400.64 480 412.648V416Z" fill="black"/>
</svg>
